include/LD/assets/icons/standard/file.svg

<?xml version="1.0"?><svg xmlns="http://www.w3.org/2000/svg" width="100" height="100" viewBox="0 0 100 100"><g fill="#fff"><path d="m29 63v-32c-3.3 0-6 2.7-6 6v38c0 3.3 2.7 6 6 6h30c3.3 0 6-2.7 6-6h-24c-6.6 0-12 0-12-12z m46-26h-10c-3.3 0-6-2.7-6-6v-10c0-1.1-0.9-2-2-2h-16c-3.3 0-6 2.7-6 6v38c0 3.3 2.7 6 6 6h30c3.3 0 6-2.7 6-6v-24c0-1.1-0.9-2-2-2z m1.6-8.4l-9.2-9.2c-0.3-0.3-0.6-0.4-1-0.4-0.8 0-1.4 0.6-1.4 1.4v6.6c0 2.2 1.8 4 4 4h6.6c0.8 0 1.4-0.6 1.4-1.4 0-0.4-0.1-0.7-0.4-1z"></path></g></svg>

<svg xmlns="http://www.w3.org/2000/svg" x="0px" y="0px"
	 width="100px" height="100px" viewBox="0 0 100 100" enable-background="new 0 0 100 100" xml:space="preserve">
<g>
	<path fill="#FFFFFF" d="M29,63V31c-3.3,0-6,2.7-6,6v38c0,3.3,2.7,6,6,6h30c3.3,0,6-2.7,6-6H41C34.4,75,29,75,29,63z"/>
	<path fill="#FFFFFF" d="M75,37H65c-3.3,0-6-2.7-6-6V21c0-1.1-0.9-2-2-2H41c-3.3,0-6,2.7-6,6v38c0,3.3,2.7,6,6,6h30c3.3,0,6-2.7,6-6
		V39C77,37.9,76.1,37,75,37z"/>
	<path fill="#FFFFFF" d="M76.6,28.6l-9.2-9.2c-0.3-0.3-0.6-0.4-1-0.4l0,0c-0.8,0-1.4,0.6-1.4,1.4V27c0,2.2,1.8,4,4,4h6.6
		c0.8,0,1.4-0.6,1.4-1.4l0,0C77,29.2,76.9,28.9,76.6,28.6z"/>
</g>
</svg>
